X:1
T:5 Lieder
T:Frühlingsgruß
T:Carl Reinecke
T:Joseph von Eichendorff
T:Frühlingsgruß
T:Op. 14, No. 2
T:CPDL   —   Creative Commons Attribution Non Commercial 3.0
T:CPDL   —   Creative Commons Attribution Non Commercial 3.0
T:CPDL   —   Creative Commons Attribution Non Commercial 3.0
T:CPDL   —   Creative Commons Attribution Non Commercial 3.0
C:Carl Reinecke
Z:Joseph von Eichendorff
Z:CPDL   —   Creative Commons Attribution Non Commercial 3.0
%%score [ ( 1 2 ) 3 4 ]
L:1/8
Q:1/4=110
M:6/8
K:C
V:1 treble nm="Sopran\nAlt"
V:2 treble 
V:3 treble-8 nm="Tenor"
V:4 bass nm="Bass"
V:1
"^Lebhaft"!f! A | A2 A A2 A | f3 d2 A | A>AA e2 d | c3 z2 E | E2 E E2 E | e3 c2 A | E2 E B2 A | %8
w: Es|steht ein Berg im|Feu- er in|feu- ri- gem Mor- gen-|brand, und|auf der höchs- ten|Spit- ze ein|Tann- baum ü- ber'm|
 G3- G2 z | z2!mf!"^e dolce" D F2 A |!<(! (G2 B!<)! d2) e |!>(! d3!>)! c2 B | A2 E E2 ^F | %13
w: Land. _|Und auf dem|höchs- * * ten|Gip- fel steh|ich und schau vom|
 G3 z2 z | z2 E A2 B | G3 z2 z | z2 E A2 B | !breath!G3!ff! G3 | G2 G G2 G | G3- G2 G | %20
w: Baum,|und schau vom|Baum,|und schau vom|Baum: o|Welt, du schö- ne|Welt, _ man|
{/A} G^FG B2 A | !breath!G3!p!!p! E3 | E2 E E2 E | E3- E2 E |{/F} EDE G2 F | E3 z2 G | %26
w: sieht dich vor Blü- ten|kaum, o|Welt, du schö- ne|Welt, _ man|sieht dich vor Blü- ten|kaum, o|
 G2!<(! G G2 G!<)! |!f!!>(! c3- c2!>)! c |{/d} cBc d2 c | e3 | %30
w: Welt, du schö- ne|Welt, _ man|sieht dich vor Blü- ten|kaum,|
[Q:1/4=100]"^Un poco più tranquillo" !>!e3 | e2 A A2 A | f3- f2 d |{/B} A>^GA!>(! e2!>)! d | %34
w: o|Welt, du schö- ne|Welt, _ man|sieht dich vor Blü- ten|
 c3- c2 |] %35
w: kaum. _|
V:2
 A | A2 A A2 A | F3 F2 F | F>FF F2 F | E3 x2 E | E2 E E2 E | E3 E2 E | E2 E D2 C | B,3- B,2 x | %9
 x2 B, A,2 C | (B,2 D F2) G | F3 E2 D | E2 C C2 C | B,3 x2 x | x2 C C2 D | B,3 x2 x | x2 C C2 D | %17
 B,3 E3 | E2 E E2 E | E3- E2 E | E^DE G2 ^F | E3 E3 | E2 E E2 E | E3- E2 C | CB,C E2 D | C3 x2 E | %26
 E2 E E2 E | F3- F2 F | FFF F2 F | E3 | G3 | G2 G G2 G | F3- F2 F | F>EF F2 F | E3- E2 |] %35
V:3
!f! A | A2 A A2 A | A3 A2 A | A>AA A2 B | c3 z2 E | E2 E E2 E | ^G3 A2 A | A2 =G ^F2 F | %8
w: Es|steht ein Berg in|Feu- er, in|feu- ri- gem Mor- gen-|brand, und|auf der höchs- ten|Spit- ze ein|Tann- baum ü- ber'm|
 G2!mf! D G2 A | G6- | G2 G A2 B |!>(! B3!>)! c2 d | c2 A A2 d | d2 D G2 A | (G3 ^F2) F | %15
w: Land. Und auf dem|höchs-|* ten, höchs- ten|Gip- fel steh|ich und schau vom|Baum, und auf dem|höchs- * ten|
 G2 D G2 A | G2 G E2 ^F | !breath!G3!ff! B3 | B2 B B2 B | B3- B2 B | BBB ^d2 B | !breath!B3!p! E3 | %22
w: Gip- fel ste- he|ich und schau vom|Baum: o|Welt, du schö- ne|Welt, _ man|sieht dich vor Blü- ten|kaum, o|
 E2 E E2 E | E3- E2 G | GGG A2 B | c3 z2 _B | _B2!<(! B B2 B!<)! |!f!!>(! A3- A2!>)! A | %28
w: Welt, du schö- ne|Welt, _ man|sieht dich vor Blü- ten|kaum, o|Welt, du schö- ne|Welt, _ man|
 _AAA A2 A | G3 | !>!^c3 | ^c2 c c2 A | A3- A2 A | A>AA!>(! B2!>)! B | c3- c2 |] %35
w: sieht dich vor Blü- ten|kaum,|o|Welt, du schö- ne|Welt, _ man|sieht dich vor Blü- ten|kaum. _|
V:4
!f! A, | A,2 A, A,2 A, | D,3 D,2 D, | D,>D,D, G,2 G, | C,3 z2 E, | E,2 E, E,2 E, | C,3 C,2 C, | %7
w: |||||||
 C,2 C, D,2 D, | G,3- G,2 z | z2 z z2!mf!"^e dolce" D, |!<(! G,2 G,!<)! G,2 G, | %11
w: ||Und|auf dem höchs- ten|
!>(! G,3!>)! G,2 G, | G,2 G, G,2 G, | G,3 z2 z | z2 D, D,2 D, | G,2 z4 | z2 D, D,2 D, | %17
w: Gip- fel steh|ich und schau vom|Baum,|und schau vom|Baum,|und schau vom|
 !breath!G,3!ff! E,3 | E,2 E, E,2 E, | E,3- E,2 E, | E,E,E, E,2 E, | !breath!E,3!p! E,3 | %22
w: Baum: *|||||
 E,2 E, E,2 E, | E,3- E,2 G, | G,G,G, G,2 G, | C,3 z2 C, | C,2!<(! C, C,2 C,!<)! | %27
w: |||||
!f!!>(! C,3- C,2!>)! C, | C,C,C, C,2 C, | C,3 | !>!A,,3 | A,2 A, A,2 A, | D,3- D,2 D, | %33
w: ||||||
 D,>D,D,!>(! G,2!>)! G, | C,3- C,2 |] %35
w: ||

